X: 9586
T:Gan Ainm
R:Reel
S:Unknown box player.
D:Clare FM broadcast.
M:4/4
Z:Bernie Stocks
K:G
|: EAAG ABcd | eaaf gedB | cBAc BAGB | AcBA GEED | EAAG ABcd | eaaf gedB |
cBcd eage |1 dBGA BAAG :|2 dBGA BA(3Bcd |: eaa^g a2ab | bc'ba gedB | cBAc BAGB |
AcBA GEED | ea~a2 bg~g2 | agef gfga | bgaf gedB |1 AcBG ABcd :|2 AcBG A3G ||
